X:101
T:Trip to Paris. VWMLa.101
%%VWML:Anon2-3049-p58-0
F:http://www.vwml.org/record/Anon2/3049/p58
S:Anon. MS, late 18thC, Vaughan Williams Mem. Library
N:...and got plastered..
O:England;Yorkshire
Z:vmp/efdss.Simon Wilson. Reviewed PJH 2008.
M:C|
L:1/8
Q:1/2=90
K:G
G2Bd cAFD|GBdg d2cB|ceAc BdGB|AcFA G2G,2:|\
|:gbeg fadf|egfe d2d2|ceAc BdGB|AcFA G2G2:|
T:Suden Thought. VWMLa.102
T:Sudden Thought
R:Reel
S:Anon. MS, late 18thC, Vaughan Williams Mem. Library
N:I added the second title, for seach programs. PJH
O:England;Yorkshire
Z:vmp/efdss.Simon Wilson. Reviewed PJH 2008.
M:C|
L:1/8
Q:1/2=90
K:G
GD-DC B,>A,G,c|(B/c/d) BG A/A/AA2|\
GD-DC B,>A,G,c|BdAF G/G/GG2:|
|:gdgd (e/d/c) BG|gdBg aAA2|\
gdgd e/d/c BG|BdAF G/G/GG2:|
